X: 21343
T: Kerfunten, The
R: jig
M: 6/8
K: Dmajor
~F3 FED|A3 Bcd|A2A BAF|~E3 EFG|
~F3 FED|A2A Bcd|A3 BAF|EDC D3|
~F3 FED|A2A Bcd|AGA BAF|~E3 EFG|
~F3 FED|A2A Bcd|A3 BAF|EDC D3||
|:~d3 def|~B3 BAF|~d3 def|fed ~e3|
d3 def|~B3 Bcd|A2A BAF|EDC D3:|

